symbols/web/stay_current_landscape/materialsymbolsoutlined/stay_current_landscape_wght200fill1_20px.svg

<svg xmlns="http://www.w3.org/2000/svg" height="20" width="20"><path d="M3.104 15q-.625 0-1.031-.406-.406-.406-.406-1.032V6.438q0-.626.406-1.032T3.104 5h13.792q.625 0 1.031.406.406.406.406 1.032v7.124q0 .626-.406 1.032T16.896 15Zm1.688-.917h10.416V5.917H4.792Z"/></svg>

<svg xmlns="http://www.w3.org/2000/svg" height="20" width="20"><path d="M3.104 15Q2.479 15 2.073 14.594Q1.667 14.188 1.667 13.562V6.438Q1.667 5.812 2.073 5.406Q2.479 5 3.104 5H16.896Q17.521 5 17.927 5.406Q18.333 5.812 18.333 6.438V13.562Q18.333 14.188 17.927 14.594Q17.521 15 16.896 15ZM4.792 14.083H15.208V5.917H4.792Z"/></svg>
